icon-themes/breeze_svg/cmd/lc_glueescapedirectiontop.svg

<svg viewBox="0 0 24 24" xmlns="http://www.w3.org/2000/svg"><path d="m4 4v16h16v-16zm1 1h14v14h-14zm7 1-3 3h2v4h2v-4h2z" fill="#4d4d4d"/><path d="m12 12c-1.656859 0-3 1.3431-3 3s1.343141 3 3 3 3-1.3431 3-3-1.343141-3-3-3zm0 2c.552285 0 1 .4477 1 1s-.447715 1-1 1-1-.4477-1-1 .447715-1 1-1z" fill="#1d99f3"/></svg>

<svg xmlns="http://www.w3.org/2000/svg" viewBox="0 0 24 24">
 <path 
     style="fill:#4d4d4d" 
     d="M 4 4 L 4 20 L 20 20 L 20 4 L 4 4 z M 5 5 L 19 5 L 19 19 L 5 19 L 5 5 z M 12 6 L 9 9 L 11 9 L 11 13 L 13 13 L 13 9 L 15 9 L 12 6 z "
     />
 <path 
     style="fill:#1d99f3" 
     d="M 12 12 C 10.343141 12 9 13.3431 9 15 C 9 16.6569 10.343141 18 12 18 C 13.656859 18 15 16.6569 15 15 C 15 13.3431 13.656859 12 12 12 z M 12 14 C 12.552285 14 13 14.4477 13 15 C 13 15.5523 12.552285 16 12 16 C 11.447715 16 11 15.5523 11 15 C 11 14.4477 11.447715 14 12 14 z "
     />
 </svg>
